X:1
T:Liebestraum
T:Liebestraum
T:No. 3
T:Franz Liszt
C:Franz Liszt
%%score { ( 1 4 5 ) | ( 2 3 ) }
L:1/8
Q:1/4=80
M:6/4
K:Ab
V:1 treble nm="鋼琴" snm="Pno."
V:4 treble 
V:5 treble 
V:2 bass 
V:3 bass 
V:1
"^Poco Allegro, con affetto""_dolce catando" z2 |[Q:1/4=120] z (EAcAE)[Q:1/4=128] z (EAcAE) | %2
 z (=EBcBE) z (EBcBE) | z (_E=AcAE) z!<(! (EAcA!<)!!mf!E) | z!>(! (=D_AcAD)!>)! z!p! (DAcAD) | %5
 z (_DEcED) z (DEGED) |"_sempre Pedale" z (CEAEC) z (A,CACA,) | z (EAcAE) z (EA!<(!cAE) | %8
 z (=EBcBE) z (EB!<)!!mf!cBE) | z (_E=AcAE) z (EAcAE) | z =D_AfcA z A,B,FDB, | z B,_DGED z DEGED | %12
 z CEAEC z CAECA, | z DA_FD z z DAFD z | z EcAEC z EcAE z | %15
[Q:1/4=136]"^poco cresc. ed agitato" z FcAF z z FcAF z |[Q:1/4=138] z Gc=ecG z GcecG | %17
[Q:1/4=140] z =A!mf!c!>(!=ecA z AcecA |[Q:1/4=142] z ^G=B=eBG z =EGBGE | %19
[Q:1/4=144] z =E^G^cGE z ^CEGEC |[Q:1/4=146] z!>)!!p! ^D^^F^AFD z _F_A_dAF | %21
[Q:1/4=148] z _E=G_BGE z _FABAF | %22
[Q:1/4=150] z EGBGE[Q:1/4=145] z[Q:1/4=140] A[Q:1/4=135]B[Q:1/4=130]_f[Q:1/4=125]B[Q:1/4=120]A | %23
[Q:1/4=48] !fermata!z12[Q:1/4=120][Q:1/4=110][Q:1/4=100][Q:1/4=90] | %24
 z12[Q:1/4=120][Q:1/4=125][Q:1/4=130] | %25
 z2 [_FA][EG][Q:1/4=48] (26:8:26[Ad][GB][Q:1/4=52]!<(![d_f][Be][Q:1/4=56][fa][eg][Q:1/4=60][ad'][gb][Q:1/4=64]!8va(![d'_f'][be'][f'a']!<)!!mf![e'g'][a'd''][g'b']([d''_f''][b'e''][d''f''][b'e''][a'd''][g'b'])([f'a'][e'g'][f'a'][e'g'][d'f'][be'])!8va)! | %26
[Q:1/4=36] (12:2:12([ad'][gb][ad'][gb][_fa][eg])([d_f][Be][df][Be][Ad][GB])[Q:1/4=36]!<(! (12:2:12[Ad][GB][Ad][GB][Q:1/4=34][Ad][GB][Ad][GB][Q:1/4=32][Ad][GB][Ad][GB]!<)!!f![Q:1/4=28]!>(! (12:2:12[Ad][GB][Ad][Q:1/4=24][GB][Ad][GB][Ad][Q:1/4=20][GB][Ad][GB][Ad][GB]!>)!!p![Q:1/4=150] z2"^"[Q:1/4=20] z2[Q:1/4=136] =d2 || %27
[K:B][Q:1/4=160]"^Più animato con passione"[Q:1/4=170] !>!d6[Q:1/4=175] !>!d6 | %28
[Q:1/4=180] !>!d6-[Q:1/4=185] d4!<(! !>!d2!<)! | %29
[Q:1/4=190]!mf! !>!d4 !>!d2[Q:1/4=195]!>(! (!>!e4!>)!!p! !>!d2) | %30
[Q:1/4=200] (!>!d6[Q:1/4=205] !>!G2) z2 !>!G2 | (!>!G2 !>!A2 !>!B2)!mf! (!>!d4 !>!c2) | %32
 (!>!c2!p! !>!B2 !>!G2) !>!F2 z2 z !>!F | !>!d6 !>!d6 | !>!d6- d4 !>!^d2 | %35
 (!>!.^d4 !>!.=e2) (!>!.d4 !>!.e2) | !>!!^!=f6- f4!f! [=A,=A]2 | %37
!<(! [=A,=A]2 [B,B]2 [=C=c]2!<)!!ff![Q:1/4=205] !arpeggio![Ee]4 [=D=d]2[Q:1/4=150] || %38
[K:C]"^sempre stringendo" [CGc]2[Q:1/4=212] z2 z2 z2 z2 z [cc'] | %39
 [cf_ac']4-!<(! [cfac'][Bfab] [cfac']4- [cfac'][dfad']!<)! | %40
!ff!!>(! [ege']4- [ege']!>)!!ff![dgd'] [cgc']2 z2 z [ee'] | %41
 [eac'e']4-!<(! [eac'e'][^dac'^d'] [eac'e']4- [eac'e'][^f^f']!<)! |!ff! !>![^g^g']6 !>![gg']6 | %43
!ff!!<(! !>![^g^g']6!<)!!ff!!>(! x4 z [gg']!>)! |!ff! !>![^g^g']4 z [gg'] [aa']4 z [gg'] | %45
!>(! ([^g^g']6!>)! [^c^c']2) z2 [cc']2 | %46
 ([^c=a^c']2!<(!!8va(! [^dab^d']2 [eabe']2!<)!!ff!!>(! !>![^gbd'^g']4 [^f^f']2)!>)! | %47
!ff! ([^f^gb^f']2 [ee']2!8va)! [^c^^f^c']2 [Bgb]2) z2 [Bb]2 | !>![^g^g']6 !>![gg']6 | %49
 !>![^g^g']12 | !>![_a_a']6 !>![aa']6 || %51
[K:Ab]"_appassionato assai"!8va(! ([a=d'a']4 [gg']2 [ff']2)!8va)! ([Gg]2 [Aa]2 | %52
!>(! ([cfac']6)!>)!!ff! [Bb]2) z2!8va(! [aa']2 | %53
 [a=d'a']3 [gg'] (3[bb'][aa'][gg'] [ff']2!8va)! ([Gg]2 [Aa]2 | %54
!ff!!>(! ([cfac']6)!>)!!ff! [Bb]2) z2!8va(! [aa']2 | %55
[Q:1/4=180] ([a=d'a']3[Q:1/4=160]!<(! [gg'][bb'][aa'] [_c'_c''][bb']!<)!!ff! .[g'g'']2) z[Q:1/4=150] [f'f''] | %56
[Q:1/4=180] [e'e''][Q:1/4=185][=d'=d''][Q:1/4=200][=c'=c''][Q:1/4=212][bb'][aa'][gg'] [ff']2!8va)! [Gg]2 [Aa]2 | %57
 (!>![cfac']4 [Bb]2) (!>![eabe']4 [_d_d']2) |!8va(! (!>![gbd'g']4 [ff']2) (!>![c'f'c'']4 [bb']2) | %59
[Q:1/4=200] !arpeggio!!^![f'g'b'd''f'']12!8va)![Q:1/4=190][Q:1/4=175][Q:1/4=155][Q:1/4=125][Q:1/4=40] | %60
[Q:1/4=60]!8va(! (4:1:4=e''c''_e''_c''[Q:1/4=62](4:1:4=d''b'_d''=a'[Q:1/4=64] (4:1:4=c''_a'=b'g'[Q:1/4=67](4:1:4_b'_g'=a'f'[Q:1/4=70] (4:1:4_a'_f'"_dimin."=g'_e'[Q:1/4=80](4:1:4^f'=d'=f'_d'(4:1:4=e'c'_e'_c'(4:1:4=d'_b_d'=a (4:1:4=c'_a=bg(4:1:4_b_g!8va)!=af (4:1:4_a_f=ge(4:1:4^f=d=fd | %61
[Q:1/4=312]!p! (fedBG=D) (EGB_d=df) (egb_d'=d'f')!8va(! (e'g'b'_d''=e''f'') | %62
[Q:1/4=156] (24:12:24c''d''"_leggiero"=a'b'^f'g'=e'=f'c'd'!8va)!=ab[Q:1/4=152]^fg=e=f[Q:1/4=148]cd=AB[Q:1/4=140]^FG=E=F | %63
[Q:1/4=124] (24:12:21(=D_E_FE[Q:1/4=92]=FE^FE[Q:1/4=72]GE_AE[Q:1/4=52] =AEB[Q:1/4=28]E=B) z z2"^" z2 !>!E2 | %64
[Q:1/4=144]"^Tempo primo"[Q:1/4=120]"_dolce armonioso" !>!c6[Q:1/4=128] !>!c6 | %65
 !>!c6- !>!c2 z2 !>!c2 |!<(! (!>!c4!<)!!mp! !>!c2!>(! !>!d4 !>!c2)!>)! | %67
!p! (!>!c6 !>!F2) z2 !>!F2 | (!>!F2 !>!G2 !>!A2 !>!c4 !>!B2) | !>!A6 z2 z2 !>!E2 | !>!c6 !>!c6 | %71
 !>!c6- c2 z2 !>!c2 | (!>!c4 !>!c2!<(! !>!d4!<)!!mp! !>!c2) | !>!f12 |!p! x6 !>!!tenuto!B6 | %75
"^ritenuto"[Q:1/4=124] !>!!tenuto!e12 |[Q:1/4=120] x6 !>!!tenuto!_A6 | %77
[Q:1/4=112] !>!_d6- d4 !>!c2 |[Q:1/4=108]"_più smorz. e rit." (!>!c4 !>!B2 !>!c4 !>!B2) | %79
[Q:1/4=100]!pp! A2 z2 z x x2[Q:1/4=92] x4 | ([ec']4 .[=ec']2 .[fc']2 .[_gd']2 .[gc']2 | %81
 .[_af']2) z2 z2 z6 |[Q:1/4=88] ([_db]4 .[=db]2 .[eb]2 .[_fc']2 .[fb]2 | .[_ge']2) z2 z2 z6 | %84
 !arpeggio![^C=E^c]12 | _B6- B4[Q:1/4=80] =c2 | A12[Q:1/4=72][Q:1/4=64] |!>(! A12[Q:1/4=56]!>)! | %88
!pp! !fermata![CA]12 |] %89
V:2
!p! z2 |!ped! !>!A,,2 z2 z2 z6!ped-up! |!ped! !>!G,,2 z2 z2 z6!ped-up! | %3
!ped! !>!F,,2 z2 z2 z6!ped-up! |!ped! !>!B,,,2 z2 z2 z6!ped-up! | %5
!ped! !>!F,2 !>!G,2 !>!A,2 !>!C4 !>!B,2!ped-up! |!ped! !>!A,6 z2 z2 !>!E,2!ped-up! | %7
!ped! !>!C6 x2 x4!ped-up! |!ped! !>!G,,2 z2 z2 !>!_G,,2 z2 z2!ped-up! | %9
!ped! !>!F,,2 z2 z2 !arpeggio!!>![F,=A,]2 z2 z2!ped-up! | %10
"^ten."!ped! !arpeggio!!>!B,,2 z2 z2 !>!B,,,2 z2 z2!ped-up! | %11
!ped! !>!F,2 !>!G,2 !>!A,2 !>!C4 !>!B,2!ped-up! |!ped! !>!A,2 z2 z2 !>!A,,,2 z2 z2!ped-up! | %13
!ped! !>!A,4- A, x2 x2 x x2!ped-up! |!ped! !>!.[A,,E,]2 z2 z2 !>!.A,,,2 z4!ped-up! | %15
!ped! !>!C4- C x2 x2 x x2!ped-up! |!ped! !>![C,,G,]2 z2 z2 z6!ped-up! | %17
!ped! !arpeggio!!>![=A,,=E,C]2 z2 z2 z6!ped-up! | %18
!ped! !arpeggio!!>![=E,,=B,,^G,]2 z2 z2 z6!ped-up! | %19
!ped! !arpeggio!!>![=E,,^G,]2 z2 z2 z6!ped-up! | %20
!ped! !arpeggio!!>![^D,,^^F,]2 z2 z2 !arpeggio!!>!.[_F,,_A,]2 z2 z2!ped-up! | %21
!ped! !arpeggio!!>!.[_E,,=G,]2 z2 z2 !arpeggio!!>!.[_F,,_A,]2 z2 z2!ped-up! | %22
!ped! !arpeggio!!>!.[E,,G,]2 z2 z2 !>![D,,D,]2 z2 z2!ped-up! | %23
 .!fermata!_F2 (.E2 .D2 ._C2 .B,2 .A,2 | .=G,2) z2 z2!p!!ped! (E,,B,,D,G,B,D | %25
_FE)!ped-up!!ped! z2[K:treble] (26:8:26_FEAGdB_feagd'b_f'e'!ped-up!!ped!!8va(!(a'g'a'g'_f'e')!ped-up!!ped!(d'bd'bag)!8va)!!ped-up! | %26
!ped! (12:2:12(_fefedB)!ped-up!!ped!(AGAG_FE)!ped!!ped-up! (12:2:12FEFEFEFEFEFE (12:2:12FEFEFEFEFEFE z6!ped-up! || %27
[K:B][K:bass]!ped! z (F,B,DB,F,) z (F,B,DB,F,)!ped-up! |!ped! z (^^F,CDCF,) z (F,CDCF,)!ped-up! | %29
!ped! z (^F,CDCF,) z (F,^B,DB,F,)!ped-up! |!ped! z (^E,=B,DB,E,) z (C,E,B,E,C,)!ped-up! | %31
!ped! z (=E,F,CF,E,) z (F,A,EA,F,)!ped-up! |!ped! z (B,,F,B,^E,B,) (F,D^CB,G,F,)!ped-up! | %33
!ped! z F,B,DB,F, z ^^F,CDCF,!ped-up! |!ped! z ^F,^B,DB,F, z F,=C_ECF,!ped-up! | %35
!ped! z =G,=C=ECG, z G,CECG,!ped-up! |!ped! z =A,[=C=D]=F[CD]A, z6!ped-up! | %37
!ped! z (=G,,[=D,=F,]=A,[D,F,]G,,) !arpeggio!.[G,,F,B,]2 z2 z2!ped-up! || %38
[K:C]!ped! !>![C,,C,]2[K:treble] cEGC[K:bass]EG,CE,G,C,!ped-up! | %39
!ped! !>![F,,F,]2 _ACF_A,CF,A,C,F,_A,,!ped-up! | %40
!ped! !>![C,,C,]2[K:treble] cEGC[K:bass]EG,CE,G,C,!ped-up! | %41
!ped! !>![A,,,A,,]2[K:treble] cEAC[K:bass]EA,CE,A,C,!ped-up! | %42
!ped!(xB,^G,EB,G,)!ped-up!!ped!(xB,G,EB,G,)!ped-up! | %43
!ped!(x^B,^G,^FB,G,)!ped-up!!ped! (^D,B,G,FB,G,)!ped-up! | %44
!ped! z (=B,^G,^FB,G,)!ped-up!!ped! z (B,G,^EB,G,)!ped-up! | %45
!ped!!<(! (^F,,=E,^A,A,=E^G)!ped-up!!<)!!ped! (GEA,A,E,F,,)!ped-up! | %46
!ped! (B,,,B,,^F,=A,^CE ^G^DB,A,^D,B,,)!ped-up! |!ped! (E,,B,,E,^G,^A,E B,^GEB,^G,B,,)!ped-up! | %48
!ped!(xB,^G,EB,G,)!ped-up!!ped!(x^B,^G,^FB,G,)!ped-up! | %49
!ped! (D,=B,^G,^EB,G, _D,B,_A,=FB,A,)!ped-up! |!ped!(xC_A,FCA,)!ped-up!!ped!(x_DA,FDA,)!ped-up! || %51
[K:Ab]!ped! z (A,=DFDA, F,A,DFDA,)!ped-up! |!<(!!ped! (E,,_D,F,A,B,!<)!_DFDB,A,F,D,)!ped-up! | %53
!ped! z (A,=DFDA, F,A,DFDA,)!ped-up! |!<(!!ped! (E,,_D,F,A,B,_D!<)!FDB,A,F,D,)!ped-up! | %55
!ped! z (A,=DFDA,) z (F,A,DA,F,)!ped-up! |!ped! z12!ped-up! | %57
!ped! (E,,_D,F,A,B,_DFDB,A,F,D,)!ped-up! |!ped! (E,,D,F,A,B,DAFDA,F,D,)!ped-up! | %59
!ped! (E,,B,,D,G,B,D[K:treble]GBdgbd')!ped-up! | %60
!8va(! (4:1:4g'b'_g'=a'(4:1:4f'_a'=e'=g' (4:1:4_e'_g'=d'f'(4:1:4_d'=e'c'_e' (4:1:4_c'=d'b_d'(4:1:4=a=c'_a=b(4:1:4g_b_g=a(4:1:4f_a!8va)!=e=g (4:1:4_e_g=df(4:1:4_d=ec_e (4:1:4_c=dB_d(4:1:4=A=c_A_c | %61
 [GB] z x z2 z2 z4 x x4 x8 | !fermata!z12 |[K:bass] x12!ped!!ped-up! | %64
!ped! !>!A,,2 z2[K:treble] (.[eac']2 .[eac']2) z2 z2!ped-up! | %65
[K:bass]!ped! !>!G,,2 z2[K:treble] (.[=ebc']2 .[ebc']2) z2 z2!ped-up! | %66
[K:bass]!ped! !>!F,,2 z2[K:treble] (.[e=ac']2 .[eac']2) z2 z2!ped-up! | %67
[K:bass]!ped! !>![B,,,B,,]2 z2[K:treble] (.[=dfc']2 .[df]2) z2 z2!ped-up! | %68
[K:bass]!ped! !>![E,,E,]2 z2[K:treble] [B_d]2 !arpeggio![deg]2 x2 x2!ped-up! | %69
[K:bass]!ped! !>![A,,,A,,]2 z2[K:treble] (.[cea]2 .[cea]2) z2 z2!ped-up! | %70
[K:bass]!ped! !arpeggio!!>![A,,E,C]2 z2[K:treble] (.[eac']2 .[eac']2) z2 z2!ped-up! | %71
[K:bass]!ped! !arpeggio!!>![G,,=E,B,]2 z2[K:treble] (.[=ebc']2 .[ebc']2) z2 z2!ped-up! | %72
[K:bass]!ped! (!>![F,,=A,]6 !>![_E,,_G,]6!ped-up! | %73
!ped! !>![=D,,F,]2) z2[K:treble] (.[ac'f']2 .[a=bf']2) z2 z2!ped-up! | %74
[K:bass]!ped! !>![_D,,_F,]2 z2[K:treble] (.[_fa_b]2 .[fgb]2) z2 z2!ped-up! | %75
[K:bass]!ped! !arpeggio!!>![C,,E,]2 z2[K:treble]!>(! (.[_gbe']2!>)! .[g=ae']2) z2 z2!ped-up! | %76
[K:bass]!ped! !>![_C,,=D,]2 z2[K:treble] (.[=d_g_a]2 .[dfa]2) z2 z2!ped-up! | %77
[K:bass]!ped! !>![B,,,_D,]2 z2[K:treble] (.[fa_d']2 .[_fad']2) z2 z2!ped-up! | %78
[K:bass]!ped! z6 G,6!ped-up! |!ped! z (A,,,A,,E,A,[I:staff -1]CEAceab)!ped-up! | %80
[I:staff +1][K:treble]!ped! ([Ac]4!ped-up!!ped! .[GB]2!ped-up!!ped! .[F=A]2!ped-up!!ped! .[_EA]2!ped-up!!ped! .[EA]2!ped-up! | %81
!ped! .[=D_c]2) z2 z2 z6!ped-up! | %82
!ped! ([_GB]4!ped-up!!ped! .[_FA]2!ped-up!!ped! .[E=G]2!ped-up!!ped! .[_DG]2!ped-up!!ped! .[DG]2!ped-up! | %83
!ped! .[C=A]2) z2 z2 z6!ped-up! |[K:bass]!ped! (!arpeggio![^C,,=A,]12!ped-up! | _A,6 =G,6) | %86
 E,6- E,2 =D,2 E,2 | (=G,6 F,4 E,2) | !arpeggio!!fermata![A,,E,]12 |] %89
V:3
 !>!E,2 | x6 !>!C6 | x10 !>!C2 | x4 !>!C2 x4 !>!C2 | x6 !>!F,2 z2 !>!F,2 | %5
 !arpeggio!!>!E,,2 z2 z2 !arpeggio!!>!E,2 z2 z2 | !>!A,,2 z2 z2 !>!A,,,2 z2 z2 | %7
 !arpeggio!!>!A,,2 z2 z2 z6 | x10 !>!C2 | x4 !>!C2 !>!D4 !>!C2 | !>!F6 z2 z2 !>!F,2 | %11
 !arpeggio!!>!E,,2 z2 z2 !arpeggio!!>!E,2 z2 z2 | !>!A,,2 x10 | %13
 !>!._F,,2 z2 z2 !>!.[D,,_F,]2 z2 z2 | x12 | !>!A,,2 z2 z2 !>![F,,A,]2 z2 z2 | x6 !>!!tenuto!=E6 | %17
 x6 !>!!tenuto!=E6 | x6 !>!!tenuto!=B,6 | x10 !>!^G,2 | x10 !>!_C2 | %21
 x2 (!>!=A,2 !>!_B,2) x4 !>!_C2 | x2 (!>!=A,2 !>!B,2) x2 (!>!_A,2 !>!B,2) | x12 | x12 | %25
 x241/60[K:treble] x259/60!8va(! x37/10!8va)! | x12 ||[K:B][K:bass] !>!B,,2 x10 | !>!A,,2 x10 | %29
 !>!=A,,2 x4 !>!G,,2 x4 | !>!C,,2 x10 | !>!F,,2 x10 | x12 | !>!B,,2 x4 !>!A,,2 x4 | %34
 !>!=A,,2 x4 _A,,2 x4 | !>!=G,,2 x10 | !>!=G,,2 x10 | x12 ||[K:C] x2[K:treble] x4[K:bass] x6 | %39
 x12 | x2[K:treble] x4[K:bass] x6 | x2[K:treble] x4[K:bass] x6 | !>![E,,E,]6 !>![E,,E,]6 | %43
 !>![^D,,^D,]6 x6 | !>![=D,,=D,]6 !>![^C,,^C,]6 | x12 | x12 | x12 | !>![E,,E,]6 !>![^D,,^D,]6 | %49
 !>![=D,,=D,]12 | !>![C,,C,]6 !>![B,,,B,,]6 ||[K:Ab] !>![_B,,,_B,,]2 x10 | x12 | %53
 !>![B,,,B,,]2 x10 | x12 | !>![_C,,_C,]6 !>![B,,,B,,]2 x4 | x12 | x12 | x12 | x6[K:treble] x6 | %60
!8va(! x15/2!8va)! x9/2 | x24 | x12 |[K:bass] x12 | x4[K:treble] x8 |[K:bass] x4[K:treble] x8 | %66
[K:bass] x4[K:treble] x8 |[K:bass] x4[K:treble] x8 |[K:bass] x4[K:treble] a2 (c'4 b2) | %69
[K:bass] x4[K:treble] x8 |[K:bass] x4[K:treble] x8 |[K:bass] x4[K:treble] x8 |[K:bass] x12 | %73
 x4[K:treble] x8 |[K:bass] x4[K:treble] x8 |[K:bass] x4[K:treble] x8 |[K:bass] x4[K:treble] x8 | %77
[K:bass] x4[K:treble] x8 |[K:bass] E,,12 | x5 z z6 |[K:treble] x12 | x12 | x12 | x12 | %84
[K:bass] x12 | !arpeggio!_E,,12 | A,,12 | !arpeggio!A,,12 | x12 |] %89
V:4
 x2 | !>!C6 x6 | !>!C6- C4 x2 | !>!C4 x2 !>!D4 x2 | !>!C6 x6 | x12 | x12 | x6 !>!C6 | %8
 !>!C6- C4 x2 | !>!C4 x8 | x12 | x12 | x11 !>!A, | x5 !>!G, (!>!A,4- A,!>!B,) | !>!C6 x5 !>!C | %15
 x5 !>!=B, (!>!C4- C!>!=D) | !>!=E4 z2 x6 | !>!!tenuto!=E6 x6 | !>!!tenuto!=E6 x6 | %19
 !>!!tenuto!^C6- C4 x2 | !>!^A,4 z2 !>!_D4 x2 | !>!_B,2 x4 !>!D4 x2 | !>!B,2 x4 !>!!^!_F6 | x12 | %24
 x12 | x97/15!8va(! x111/20!8va)! | x12 ||[K:B] z (DFBFD) z (DFBFD) | z (D^^FcFD) z (DFcFD) | %29
 z (D^FcFD) z (DF^BFD) | z (D^E=BED) z (B,CECB,) | z!<(! (C=EFEC)!<)! z (EF!>(!AFE) | %32
 z D!>)!FDG^^C D x5 | z DF"_crescendo"BFD z D^^FcFD | z D^F^BFD z _E^F=cF_E | %35
 z =E=G=cGE z!mf! EGcGE | z =F=A=cAF z6 | x12 ||[K:C] x12 | x12 | x12 | x12 |(xBe^GBe)(xBeGBe) | %43
(x^B^f^GBf ^gBfG) x2 |(x=B^f^G)x2(xB^e^G) x2 | x12 | x2!8va(! x10 | x4!8va)! x8 | %48
(xBe^GBe)(x^B^fGBf) | (^g=B^e^GBe _aB=f_ABf) |(xcf_ABf)(x_dfAdf) ||[K:Ab]!8va(! x8!8va)! x4 | %52
 x10!8va(! x2 | x8!8va)! x4 | x10!8va(! x2 | x12 | x8!8va)! x4 | x12 |!8va(! x12 | x12!8va)! | %60
!8va(! x19/2!8va)! x5/2 | _d x17!8va(! x6 | x5!8va)! x7 | x12 | z (CEAEC) z (CEAEC) | %65
 z (C=EBEC) z (CEBEC) | z _EF=AFE z EFAFE | z _A,=DFDA, z A,B,DB,A, | z B,_DEDB, z DEGED | %69
 z CEFEC A,CEFEA | z =DEAEC z CEAEC | z C=EBEC z CEBEC | z CF=AFC z C_G=AGC | %73
 z F_A!>(!cAF z FA=BAF!>)! | z _B,_FAFB, z B,FGFB, | z E_GBGE z EG=AGE | z _A,=D_GDA, z A,DFDA, | %77
 z _DFAFD z D_FAFD | z D_FGFD z DEGED | !arpeggio![CE]2 x10 | x12 | x12 | x12 | x12 | x12 | %85
 =F6- F2 _E4 | C6- C2 =B,2 C2 | (E6 _D4 C2) | x12 |] %89
V:5
 x2 | x12 | x12 | x12 | x12 | x12 | x12 | x12 | x12 | x12 | x12 | x12 | x12 | x12 | x12 | x12 | %16
 x12 | x12 | x12 | x12 | x12 | x12 | x12 | x12 | x12 | x97/15!8va(! x111/20!8va)! | x12 || %27
[K:B] x12 | x12 | x12 | x12 | x12 | x12 | x12 | x12 | x12 | x12 | x12 ||[K:C] x12 | x12 | x12 | %41
 x12 | x12 | x12 | x12 | x12 | x2!8va(! x10 | x4!8va)! x8 | x12 | x12 | x12 || %51
[K:Ab]!8va(! x8!8va)! x4 | x10!8va(! x2 | x8!8va)! x4 | x10!8va(! x2 | x12 | x8!8va)! x4 | x12 | %58
!8va(! x12 | x12!8va)! |!8va(! x19/2!8va)! x5/2 | x18!8va(! x6 | x5!8va)! x7 | x12 | x12 | x12 | %66
 x12 | x12 | x12 | x12 | x12 | x12 | x12 | x12 | x12 | x12 | x12 | x12 | x12 | x12 | x12 | x12 | %82
 x12 | x12 | x12 | _D12 | x12 | x12 | x12 |] %89

